common/src/main/resources/files/plugins/datagrip/redshiftFileType.svg

<!--
  - The MIT License (MIT)
  -
  - Copyright (c) 2015-2024 Elior "Mallowigi" Boukhobza
  -
  - Permission is hereby granted, free of charge, to any person obtaining a copy
  - of this software and associated documentation files (the "Software"), to deal
  - in the Software without restriction, including without limitation the rights
  - to use, copy, modify, merge, publish, distribute, sublicense, and/or sell
  - copies of the Software, and to permit persons to whom the Software is
  - furnished to do so, subject to the following conditions:
  -
  - The above copyright notice and this permission notice shall be included in all
  - copies or substantial portions of the Software.
  -
  - THE SOFTWARE IS PROVIDED "AS IS", WITHOUT WARRANTY OF ANY KIND, EXPRESS OR
  - IMPLIED, INCLUDING BUT NOT LIMITED TO THE WARRANTIES OF MERCHANTABILITY,
  - FITNESS FOR A PARTICULAR PURPOSE AND NONINFRINGEMENT. IN NO EVENT SHALL THE
  - AUTHORS OR COPYRIGHT HOLDERS BE LIABLE FOR ANY CLAIM, DAMAGES OR OTHER
  - LIABILITY, WHETHER IN AN ACTION OF CONTRACT, TORT OR OTHERWISE, ARISING FROM,
  - OUT OF OR IN CONNECTION WITH THE SOFTWARE OR THE USE OR OTHER DEALINGS IN THE
  - SOFTWARE.
  -->
<svg data-big="true" width="16px" height="16px" viewBox="0 0 16 16" fill="#D32F2F" xmlns="http://www.w3.org/2000/svg">
  <path d="M6.78386 1L4.65343 1.91304V14.087L6.78386 15V1Z"/>
  <path d="M2.82738 3.0087L1.60999 3.43478V12.5652L2.82738 13.0522V3.0087Z"/>
  <path d="M13.1752 3.0087L11.3491 3.61739V12.4435L13.1752 13.0522V3.0087Z"/>
  <path d="M9.21856 1L11.349 1.91304V14.087L9.21856 15V1Z"/>
  <path d="M2.82727 3.0087L4.65336 3.61739V12.4435L2.82727 13.0522V3.0087Z"/>
  <path d="M13.175 3.0087L14.3924 3.43478V12.5652L13.175 13.0522V3.0087Z"/>
  <rect x="6.78381" y="1" width="2.43478" height="14"/>
</svg>

<svg xmlns="http://www.w3.org/2000/svg" width="16" height="16" fill="#D32F2F" data-big="true"><path d="m6.784 1-2.13.913v12.174l2.13.913zM2.827 3.009l-1.217.426v9.13l1.217.487zM13.175 3.009l-1.826.608v8.827l1.826.608zM9.219 1l2.13.913v12.174L9.219 15zM2.827 3.009l1.826.608v8.827l-1.826.608zM13.175 3.009l1.217.426v9.13l-1.217.487zM6.784 1h2.435v14H6.784z"/></svg>
